assets/icons/reddit-default.svg

<svg width="24" height="24" viewBox="0 0 24 24" xmlns="http://www.w3.org/2000/svg">
  <g id="Styleguide" fill="none" fill-rule="evenodd">
    <g id="Base-Style---Icons" transform="translate(-420 -1570)">
      <g id="Reddit" transform="translate(407 1570)">
        <g id="Reddit-Icon" transform="translate(13)">
          <path id="Rectangle-115" d="M0 0H24V24H0z"/>
          <path d="M21.3335,12.023225 C21.6928333,11.740175 21.8725,11.351675 21.8725,10.8568 C21.8725,10.50345 21.75975,10.193575 21.5296667,9.929025 C21.3023333,9.664475 21.0071667,9.531275 20.6478333,9.531275 C20.3865833,9.531275 20.1418333,9.620075 19.9135833,9.7986 C20.59925,10.434075 21.07225,11.175 21.3335,12.023225 M18.76225,2.74825 C18.6155833,2.926775 18.5404167,3.13675 18.5404167,3.385575 C18.5404167,3.63255 18.6155833,3.844375 18.76225,4.02105 C18.908,4.197725 19.0968333,4.2856 19.3241667,4.2856 C19.55425,4.2856 19.7504167,4.197725 19.9135833,4.02105 C20.07675,3.844375 20.1583333,3.63255 20.1583333,3.385575 C20.1583333,3.13675 20.07675,2.926775 19.9135833,2.74825 C19.7504167,2.571575 19.55425,2.4837 19.3241667,2.4837 C19.0968333,2.4837 18.908,2.571575 18.76225,2.74825 M14.156,14.089675 C14.4658333,14.4088 14.8334167,14.566975 15.2578333,14.566975 C15.68225,14.566975 16.05075,14.4088 16.3596667,14.089675 C16.6713333,13.771475 16.82625,13.366325 16.82625,12.87145 C16.82625,12.411725 16.6795833,12.023225 16.3853333,11.7041 C16.092,11.38775 15.7161667,11.227725 15.2578333,11.227725 C14.8004167,11.227725 14.4264167,11.38775 14.13125,11.7041 C13.8360833,12.023225 13.6903333,12.411725 13.6903333,12.87145 C13.6903333,13.366325 13.8443333,13.771475 14.156,14.089675 M11.9761667,18.80625 C13.5436667,18.80625 14.8169167,18.27715 15.79775,17.2171 L15.15975,16.581625 C14.3448333,17.42985 13.2824167,17.852575 11.9761667,17.852575 C11.3885833,17.852575 10.8321667,17.7462 10.3096667,17.53345 C9.78716667,17.323475 9.41041667,17.110725 9.18216667,16.897975 L8.83933333,16.581625 L8.20225,17.2171 C9.18216667,18.27715 10.4389167,18.80625 11.9761667,18.80625 M7.22141667,12.87145 C7.22141667,13.366325 7.37816667,13.771475 7.688,14.089675 C7.99691667,14.4088 8.36541667,14.566975 8.78983333,14.566975 C9.21608333,14.566975 9.58183333,14.4088 9.8935,14.089675 C10.2024167,13.771475 10.3573333,13.366325 10.3573333,12.87145 C10.3573333,12.411725 10.2115833,12.023225 9.91641667,11.7041 C9.624,11.38775 9.24725,11.227725 8.78983333,11.227725 C8.33333333,11.227725 7.9575,11.38775 7.66233333,11.7041 C7.36991667,12.023225 7.22141667,12.411725 7.22141667,12.87145 M2.66558333,11.971425 C2.92775,11.157425 3.39983333,10.434075 4.0855,9.7986 C3.85725,9.620075 3.61341667,9.531275 3.35216667,9.531275 C3.02583333,9.531275 2.73891667,9.664475 2.49416667,9.929025 C2.24758333,10.193575 2.12658333,10.50345 2.12658333,10.8568 C2.12658333,11.38775 2.30625,11.758675 2.66558333,11.971425 M23,10.91045 C23,12.004725 22.5590833,12.80115 21.6763333,13.294175 C21.71025,13.4727 21.72675,13.71875 21.72675,14.037875 C21.72675,16.050675 20.7706667,17.773025 18.8603333,19.204925 C16.9490833,20.6359 14.65375,21.35 11.9761667,21.35 C9.29766667,21.35 7.01058333,20.642375 5.11583333,19.228975 C3.22016667,17.8165 2.27325,16.104325 2.27325,14.089675 C2.27325,13.73725 2.28975,13.4727 2.32275,13.294175 C1.44091667,12.80115 1,12.004725 1,10.91045 C1,10.169525 1.24475,9.540525 1.73333333,9.029925 C2.22466667,8.51655 2.79575,8.260325 3.45025,8.260325 C4.03783333,8.260325 4.57683333,8.4888 5.06633333,8.950375 C6.86391667,7.607275 8.9695,6.883925 11.3885833,6.77755 L11.4848333,6.77755 L13.0046667,1.319125 L17.4138333,2.27095 C17.87125,1.422725 18.50925,1 19.3241667,1 L19.3745833,1 C19.9951667,1 20.5094167,1.23125 20.9173333,1.69005 C21.32525,2.14885 21.5296667,2.714025 21.5296667,3.385575 C21.5296667,4.055275 21.32525,4.6223 20.9173333,5.082025 C20.5094167,5.540825 19.9951667,5.7693 19.3745833,5.7693 L19.3241667,5.7693 C18.7705,5.7693 18.2791667,5.5658 17.85475,5.16065 C17.4303333,4.75365 17.2020833,4.249525 17.1690833,3.650125 L13.8865,2.908275 L12.8075833,6.82935 C15.29175,7.006025 17.33225,7.71365 18.9336667,8.950375 C19.42225,8.4888 19.9786667,8.260325 20.59925,8.260325 C21.2519167,8.260325 21.8165833,8.51655 22.2886667,9.029925 C22.7635,9.540525 23,10.169525 23,10.91045" fill="#999"/>
        </g>
      </g>
    </g>
  </g>
</svg>

<svg width="24" height="24" viewBox="0 0 24 24" xmlns="http://www.w3.org/2000/svg">
  <g fill="none" fill-rule="evenodd">
    <path d="M0 0h24v24H0z"/>
    <path d="M21.334 12.023c.359-.283.538-.671.538-1.166 0-.354-.112-.663-.342-.928a1.111 1.111 0 0 0-.882-.398 1.17 1.17 0 0 0-.734.268 5.004 5.004 0 0 1 1.42 2.224m-2.572-9.275a.97.97 0 0 0-.222.638c0 .247.076.458.222.635a.697.697 0 0 0 .562.265c.23 0 .426-.088.59-.265a.904.904 0 0 0 .244-.635.908.908 0 0 0-.244-.638.773.773 0 0 0-.59-.264.697.697 0 0 0-.562.264M14.156 14.09c.31.319.677.477 1.102.477.424 0 .793-.158 1.102-.477.311-.319.466-.724.466-1.219 0-.46-.146-.848-.44-1.167-.294-.316-.67-.476-1.128-.476-.458 0-.832.16-1.127.476-.295.32-.44.708-.44 1.167 0 .495.153.9.465 1.219m-2.18 4.716c1.568 0 2.84-.529 3.822-1.589l-.638-.635c-.815.848-1.878 1.27-3.184 1.27a4.38 4.38 0 0 1-1.666-.319c-.523-.21-.9-.422-1.128-.635l-.343-.316-.637.635c.98 1.06 2.237 1.59 3.774 1.59M7.221 12.87c0 .495.157.9.467 1.219.309.319.677.477 1.102.477a1.49 1.49 0 0 0 1.104-.477c.308-.319.463-.724.463-1.219 0-.46-.145-.848-.44-1.167-.293-.316-.67-.476-1.127-.476-.457 0-.832.16-1.128.476-.292.32-.44.708-.44 1.167m-4.556-.9c.262-.814.734-1.537 1.42-2.172a1.167 1.167 0 0 0-.734-.268c-.326 0-.613.133-.858.398a1.316 1.316 0 0 0-.367.928c0 .53.18.902.539 1.114M23 10.911c0 1.094-.44 1.89-1.324 2.383.034.179.05.425.05.744 0 2.013-.955 3.735-2.866 5.167-1.91 1.43-4.206 2.145-6.884 2.145s-4.965-.708-6.86-2.121c-1.896-1.412-2.843-3.125-2.843-5.14 0-.352.017-.616.05-.795C1.44 12.801 1 12.004 1 10.91c0-.74.245-1.37.733-1.88.492-.513 1.063-.77 1.717-.77.588 0 1.127.229 1.616.69C6.864 7.607 8.97 6.884 11.39 6.778h.096l1.52-5.459 4.409.952C17.87 1.423 18.509 1 19.324 1h.05c.621 0 1.135.231 1.543.69.408.459.613 1.024.613 1.696 0 .67-.205 1.236-.613 1.696a1.975 1.975 0 0 1-1.542.687h-.05c-.555 0-1.046-.203-1.47-.608a2.186 2.186 0 0 1-.686-1.51l-3.283-.743-1.078 3.921c2.484.177 4.524.885 6.126 2.121.488-.461 1.045-.69 1.665-.69.653 0 1.218.257 1.69.77.474.51.711 1.14.711 1.88" fill="#999"/>
  </g>
</svg>
